designer/client/assets/img/properties.svg

<svg viewBox="0 0 35 35" xmlns="http://www.w3.org/2000/svg"><path d="M28.425 18.931c.061-.479.095-.961.103-1.444a13.171 13.171 0 0 0-.103-1.444l3.092-2.415a.74.74 0 0 0 .179-.946l-2.939-5.109a.738.738 0 0 0-.894-.319l-3.654 1.468a11.086 11.086 0 0 0-2.491-1.418l-.55-3.833a.728.728 0 0 0-.728-.677h-5.877a.717.717 0 0 0-.717.613l-.561 3.833c-.884.375-1.717.86-2.478 1.443L7.152 7.279a.727.727 0 0 0-.906.319l-2.939 5.111a.728.728 0 0 0 .179.945l3.155 2.389a10.272 10.272 0 0 0 0 2.888l-3.155 2.415a.763.763 0 0 0-.179.945l2.939 5.11a.75.75 0 0 0 .906.32l3.655-1.469a10.952 10.952 0 0 0 2.478 1.444l.561 3.896a.719.719 0 0 0 .717.614h5.877a.728.728 0 0 0 .728-.614l.55-3.896a11.512 11.512 0 0 0 2.491-1.444l3.654 1.469a.713.713 0 0 0 .894-.32l2.939-5.11a.739.739 0 0 0-.179-.945Zm-10.924 6.388c-6.049-.009-9.819-6.564-6.785-11.797 3.032-5.233 10.593-5.222 13.609.022a7.851 7.851 0 0 1 1.046 3.918 7.87 7.87 0 0 1-7.87 7.882Z" fill="currentColor"/></svg>

<?xml version="1.0" encoding="utf-8"?>
<svg viewBox="0 0 35 35" xmlns="http://www.w3.org/2000/svg">
    <path class="b"
          d="M 28.425 18.931 C 28.486 18.452 28.52 17.97 28.528 17.487 C 28.52 17.004 28.486 16.523 28.425 16.043 L 31.517 13.628 C 31.801 13.401 31.878 12.999 31.696 12.682 L 28.757 7.573 C 28.576 7.264 28.199 7.129 27.863 7.254 L 24.209 8.722 C 23.444 8.143 22.605 7.667 21.718 7.304 L 21.168 3.471 C 21.141 3.089 20.823 2.793 20.44 2.794 L 14.563 2.794 C 14.205 2.79 13.898 3.052 13.846 3.407 L 13.285 7.24 C 12.401 7.615 11.568 8.1 10.807 8.683 L 7.152 7.279 C 6.812 7.142 6.425 7.279 6.246 7.598 L 3.307 12.709 C 3.12 13.023 3.197 13.428 3.486 13.654 L 6.641 16.043 C 6.505 17.001 6.505 17.974 6.641 18.931 L 3.486 21.346 C 3.211 21.579 3.135 21.973 3.307 22.291 L 6.246 27.401 C 6.432 27.713 6.812 27.847 7.152 27.721 L 10.807 26.252 C 11.566 26.84 12.399 27.325 13.285 27.696 L 13.846 31.592 C 13.898 31.947 14.205 32.209 14.563 32.206 L 20.44 32.206 C 20.801 32.21 21.112 31.949 21.168 31.592 L 21.718 27.696 C 22.605 27.32 23.442 26.837 24.209 26.252 L 27.863 27.721 C 28.199 27.857 28.583 27.72 28.757 27.401 L 31.696 22.291 C 31.878 21.974 31.801 21.574 31.517 21.346 Z M 17.501 25.319 C 11.452 25.31 7.682 18.755 10.716 13.522 C 13.748 8.289 21.309 8.3 24.325 13.544 C 25.011 14.735 25.371 16.087 25.371 17.462 C 25.379 21.813 21.852 25.344 17.501 25.344 Z"
          style="fill: rgb(255, 255, 255);"/>
</svg>
